svg/transport/train_fill.svg

<?xml version="1.0" encoding="UTF-8"?>
<svg width="24px" height="24px" viewBox="0 0 24 24" version="1.1" xmlns="http://www.w3.org/2000/svg" xmlns:xlink="http://www.w3.org/1999/xlink">
    <title>train_fill</title>
    <g id="页面-1" stroke="none" stroke-width="1" fill="none" fill-rule="evenodd">
        <g id="Transport" transform="translate(-432.000000, -48.000000)">
            <g id="train_fill" transform="translate(432.000000, 48.000000)">
                 <path d="M24,0 L24,24 L0,24 L0,0 L24,0 Z M12.5934901,23.257841 L12.5819402,23.2595131 L12.5108777,23.2950439 L12.4918791,23.2987469 L12.4918791,23.2987469 L12.4767152,23.2950439 L12.4056548,23.2595131 C12.3958229,23.2563662 12.3870493,23.2590235 12.3821421,23.2649074 L12.3780323,23.275831 L12.360941,23.7031097 L12.3658947,23.7234994 L12.3769048,23.7357139 L12.4804777,23.8096931 L12.4953491,23.8136134 L12.4953491,23.8136134 L12.5071152,23.8096931 L12.6106902,23.7357139 L12.6232938,23.7196733 L12.6232938,23.7196733 L12.6266527,23.7031097 L12.609561,23.275831 C12.6075724,23.2657013 12.6010112,23.2592993 12.5934901,23.257841 L12.5934901,23.257841 Z M12.8583906,23.1452862 L12.8445485,23.1473072 L12.6598443,23.2396597 L12.6498822,23.2499052 L12.6498822,23.2499052 L12.6471943,23.2611114 L12.6650943,23.6906389 L12.6699349,23.7034178 L12.6699349,23.7034178 L12.678386,23.7104931 L12.8793402,23.8032389 C12.8914285,23.8068999 12.9022333,23.8029875 12.9078286,23.7952264 L12.9118235,23.7811639 L12.8776777,23.1665331 C12.8752882,23.1545897 12.8674102,23.1470016 12.8583906,23.1452862 L12.8583906,23.1452862 Z M12.1430473,23.1473072 C12.1332178,23.1423925 12.1221763,23.1452606 12.1156365,23.1525954 L12.1099173,23.1665331 L12.0757714,23.7811639 C12.0751323,23.7926639 12.0828099,23.8018602 12.0926481,23.8045676 L12.108256,23.8032389 L12.3092106,23.7104931 L12.3186497,23.7024347 L12.3186497,23.7024347 L12.3225043,23.6906389 L12.340401,23.2611114 L12.337245,23.2485176 L12.337245,23.2485176 L12.3277531,23.2396597 L12.1430473,23.1473072 Z" id="MingCute" fill-rule="nonzero"></path>
                <path d="M21,18 C21.5523,18 22,18.4477 22,19 C22,19.5523 21.5523,20 21,20 L2,20 C1.44772,20 1,19.5523 1,19 C1,18.4477 1.44772,18 2,18 L21,18 Z M12,5 C15.2244,5 17.9419,6.07548 19.8678,7.58868 C21.7592,9.07478 23,11.0853 23,13 C23,13.8416 22.7418,14.5605 22.2869,15.1406 C21.8436,15.7058 21.2528,16.0903 20.6508,16.3537 C19.4652,16.8724 18.0539,17 17,17 L2.99376,17 C1.88106,17 1,16.0964 1,15 L1,7 C1,5.89867 1.88971,5 2.99752,5 L12,5 Z M7,7 L3,7 L3,10 L7,10 L7,7 Z M12,7 L9,7 L9,10 L13,10 L13,7.04071 C12.7829333,7.02287 12.5623556,7.01072333 12.3384148,7.00460778 L12,7 Z M15,7.38297 L15,10 L19.5514,10 C19.2835,9.7142 18.9774,9.43256 18.6322,9.16132 C17.6698,8.40519 16.4427,7.76577 15,7.38297 Z" id="形状" fill="#09244B"></path>
            </g>
        </g>
    </g>
</svg>

<svg xmlns="http://www.w3.org/2000/svg" width="24" height="24"><g fill="none" fill-rule="evenodd"><path d="M24 0v24H0V0h24ZM12.593 23.258l-.011.002-.071.035-.02.004-.014-.004-.071-.035c-.01-.004-.019-.001-.024.005l-.004.01-.017.428.005.02.01.013.104.074.015.004.012-.004.104-.074.012-.016.004-.017-.017-.427c-.002-.01-.009-.017-.017-.018Zm.265-.113-.013.002-.185.093-.01.01-.003.011.018.43.005.012.008.007.201.093c.012.004.023 0 .029-.008l.004-.014-.034-.614c-.003-.012-.01-.02-.02-.022Zm-.715.002a.023.023 0 0 0-.027.006l-.006.014-.034.614c0 .012.007.02.017.024l.015-.002.201-.093.01-.008.004-.011.017-.43-.003-.012-.01-.01-.184-.092Z"/><path fill="#09244B" d="M21 18a1 1 0 1 1 0 2H2a1 1 0 1 1 0-2h19ZM12 5c3.224 0 5.942 1.075 7.868 2.589C21.759 9.075 23 11.085 23 13c0 .842-.258 1.56-.713 2.14-.443.566-1.034.95-1.636 1.214-1.186.518-2.597.646-3.651.646H2.994A1.995 1.995 0 0 1 1 15V7c0-1.101.89-2 1.998-2H12ZM7 7H3v3h4V7Zm5 0H9v3h4V7.04c-.217-.017-.438-.03-.662-.035L12 7Zm3 .383V10h4.551a8.216 8.216 0 0 0-.919-.839c-.962-.756-2.19-1.395-3.632-1.778Z"/></g></svg>
